docs/images/star.svg

<svg width="16" height="15" viewBox="0 0 16 15" fill="none" xmlns="http://www.w3.org/2000/svg">
<path d="M15.1419 5.28193L10.451 4.59758L8.35408 0.330127C8.29681 0.213287 8.20259 0.118702 8.08619 0.0612089C7.79428 -0.0834504 7.43956 0.037099 7.29361 0.330127L5.19667 4.59758L0.505822 5.28193C0.376496 5.30047 0.258254 5.36167 0.167726 5.45441C0.058282 5.56733 -0.00202656 5.71924 5.20001e-05 5.87678C0.00213056 6.03431 0.0664262 6.18457 0.178811 6.29454L3.5727 9.61614L2.77088 14.3064C2.75208 14.4156 2.7641 14.5278 2.8056 14.6304C2.84709 14.733 2.91639 14.8218 3.00564 14.8869C3.09489 14.952 3.20052 14.9906 3.31054 14.9985C3.42056 15.0064 3.53059 14.9831 3.62813 14.9314L7.82384 12.717L12.0196 14.9314C12.1341 14.9926 12.2671 15.013 12.3946 14.9908C12.7161 14.9352 12.9322 14.6291 12.8768 14.3064L12.075 9.61614L15.4689 6.29454C15.5613 6.20367 15.6222 6.08497 15.6407 5.95515C15.6906 5.63059 15.4652 5.33015 15.1419 5.28193Z" fill="#FF862F"/>
</svg>

<svg width="16" height="15" fill="none" xmlns="http://www.w3.org/2000/svg"><path d="M15.142 5.282l-4.691-.684L8.354.33a.589.589 0 00-1.06 0L5.197 4.598l-4.691.684A.59.59 0 000 5.877a.595.595 0 00.179.418l3.394 3.321-.802 4.69a.595.595 0 00.54.693c.11.007.22-.016.317-.068l4.196-2.214 4.196 2.214a.592.592 0 00.857-.625l-.802-4.69 3.394-3.321a.593.593 0 00.172-.34.591.591 0 00-.5-.673z" fill="#FF862F"/></svg>
